dist/img/svg/advantage.svg

<svg width="24" height="19" viewBox="0 0 24 19" fill="none" xmlns="http://www.w3.org/2000/svg">
<rect x="5.7627" y="0.404785" width="18" height="18" rx="2" fill="#EDF0F6"/>
<path d="M0.765666 17.0149L2.82348 0.887817C2.85871 0.611731 3.09474 0.404785 3.37439 0.404785H8.1669C8.38159 0.404785 8.54479 0.596801 8.50918 0.807493L7.48547 6.8635C7.43177 7.18117 7.80567 7.3926 8.05241 7.18408L15.6661 0.749709C15.9296 0.527033 16.264 0.404785 16.6097 0.404785H23.4149C23.7502 0.404785 23.8906 0.83099 23.6204 1.02855L1.31548 17.3368C1.06971 17.5165 0.727248 17.316 0.765666 17.0149Z" fill="#FC00FF"/>
</svg>

<svg width="24" height="19" viewBox="0 0 24 19" fill="none" xmlns="http://www.w3.org/2000/svg"><rect x="5.763" y=".405" width="18" height="18" rx="2" fill="#EDF0F6"/><path d="M.766 17.015L2.823.888a.554.554 0 01.551-.483h4.793c.215 0 .378.192.342.402L7.485 6.863c-.053.318.32.53.567.321L15.666.75c.264-.223.598-.345.944-.345h6.805c.335 0 .476.426.205.624L1.315 17.337a.347.347 0 01-.55-.322z" fill="#FC00FF"/></svg>
